source/img/logotype-mobile.svg

<svg viewBox="0 0 225.8 30" xmlns="http://www.w3.org/2000/svg"><path d="m-.027 13.159 3.465-3.465 3.493 3.493-3.465 3.465zm215.099.001 3.465-3.465 3.493 3.494-3.465 3.464z" fill="#fff"/><g fill="#636466"><path d="m28.6 13.3h1.3v-5.1h2v-1.3h-3.3zm9.1.9v-7.7a2.8 2.8 0 0 0 -1.6-2.5 2.7 2.7 0 0 1 .3 1.2v7.8a2.7 2.7 0 0 1 -1 2.1 3.2 3.2 0 0 1 1 2.3v8.6a2.8 2.8 0 0 1 -2.8 2.8h-8.2v1.2h9.6a2.8 2.8 0 0 0 2.8-2.8v-8.6a3.2 3.2 0 0 0 -1-2.3 2.7 2.7 0 0 0 .9-2.1z"/><path d="m28.6 24.2h1.3v-5.1h2v-1.3h-3.3zm20.2 0h1.3v-16h2v-1.3h-3.3z"/><path d="m56.3 4a2.7 2.7 0 0 1 .3 1.2v20.8a2.8 2.8 0 0 1 -2.8 2.8h-6.8a2.7 2.7 0 0 1 -1.2-.3 2.8 2.8 0 0 0 2.5 1.5h6.8a2.8 2.8 0 0 0 2.8-2.8v-20.7a2.8 2.8 0 0 0 -1.6-2.5zm12.7 9.3h1.2v-5.1h2v-1.3h-3.2zm7.4 5.5a2.7 2.7 0 0 0 1.6-2.5v-9.8a2.8 2.8 0 0 0 -1.5-2.5 2.8 2.8 0 0 1 .3 1.2v9.9a2.7 2.7 0 0 1 -1.6 2.5l1.8 11.2h-3.4l.2 1.2h4.5zm-5.7-1h-1.7v11h-3.3v1.2h4.5v-10.9h.7zm17.8 6.4h1.3v-16h2v-1.3h-3.3z"/><path d="m96.1 4a2.7 2.7 0 0 1 .3 1.2v20.8a2.8 2.8 0 0 1 -2.8 2.8h-6.8a2.7 2.7 0 0 1 -1.2-.3 2.8 2.8 0 0 0 2.5 1.5h6.8a2.8 2.8 0 0 0 2.8-2.8v-20.7a2.8 2.8 0 0 0 -1.6-2.5zm12.6 20.2h1.3v-16h2v-1.3h-3.3z"/><path d="m116.2 4a2.7 2.7 0 0 1 .3 1.2v20.8a2.8 2.8 0 0 1 -2.8 2.8h-8.3v1.2h9.6a2.8 2.8 0 0 0 2.8-2.8v-20.7a2.8 2.8 0 0 0 -1.6-2.5zm12.9-.3v25.1h-3.2v1.2h4.5v-26.3zm20.1 0v25.1h-3.6l.4 1.2h4.5v-26.3zm-7.8 13.5v11.6h-3.3v1.2h4.5v-8.3zm19.7 1.9h3.7v-1.3h-5a2.7 2.7 0 0 1 -1.2-.3 2.8 2.8 0 0 0 2.5 1.6zm1.7 1.7-1.2.3v3.1h1.2zm6.3-16.8a2.7 2.7 0 0 1 .3 1.2v5.3l-3.3.8v1.6l4.6-1.1v-5.3a2.8 2.8 0 0 0 -1.6-2.5z"/><path d="m169.1 14.9a2.7 2.7 0 0 1 .3 1.2v9.9a2.8 2.8 0 0 1 -2.8 2.8h-6.8a2.7 2.7 0 0 1 -1.2-.3 2.8 2.8 0 0 0 2.5 1.6h6.8a2.8 2.8 0 0 0 2.8-2.8v-9.9a2.8 2.8 0 0 0 -1.6-2.5zm-7.5-8v6.4h1.2v-5.1h2v-1.3zm20.5 10.9h-.4v11h-3.2v1.2h4.5v-9.4zm9.3-14.1h-1.7l-3.8 11.9 4.2 13.2h-3.6l.3 1.1v.1h4.6l-4.2-13.2 4.2-13.1zm10.6 0v25.1h-3.2v1.2h4.5v-26.3zm19.162 15.42 3.465-3.464 1.273 1.273-3.465 3.465zm-215.269-.03 3.465-3.465 1.272 1.273-3.464 3.465z"/></g><path d="m34 10.5a2.7 2.7 0 0 1 -1 2.1 3.2 3.2 0 0 1 1 2.3v8.6a2.8 2.8 0 0 1 -2.8 2.8h-9.5v-26.3h9.6a2.8 2.8 0 0 1 2.7 2.8v7.8zm-4.6-6h-3.2v6.4h3.3v-6.4zm0 10.9h-3.2v6.4h3.3v-6.4zm22-15.4a2.8 2.8 0 0 1 2.8 2.8v20.8a2.8 2.8 0 0 1 -2.8 2.8h-6.8a2.8 2.8 0 0 1 -2.8-2.8v-20.8a2.8 2.8 0 0 1 2.8-2.8zm-1.8 4.5h-3.2v17.3h3.3v-17.3zm20.5 21.8-1.8-11h-1.8v11h-4.5v-26.3h9.6a2.8 2.8 0 0 1 2.7 2.8v9.9a2.7 2.7 0 0 1 -1.6 2.5l1.9 11.2h-4.5zm-.3-21.8h-3.3v6.4h3.3zm21.4-4.5a2.8 2.8 0 0 1 2.8 2.8v20.8a2.8 2.8 0 0 1 -2.8 2.8h-6.8a2.8 2.8 0 0 1 -2.8-2.8v-20.8a2.8 2.8 0 0 1 2.8-2.8zm-1.8 4.5h-3.3v17.3h3.3zm21.9-4.5a2.8 2.8 0 0 1 2.8 2.8v20.8a2.8 2.8 0 0 1 -2.8 2.8h-9.6v-26.4zm-1.8 4.5h-3.3v17.3h3.3zm12.7-4.5h4.5v26.3h-4.5zm24.6 0v26.3h-4.5l-3.3-11.5v11.5h-4.5v-26.3h4.5l3.3 10.8v-10.8h4.6zm17.4 10.9a2.8 2.8 0 0 1 2.8 2.8v9.9a2.8 2.8 0 0 1 -2.8 2.8h-6.8a2.8 2.8 0 0 1 -2.8-2.8v-5.5l4.5-1.1v4.7h3.3v-6.3h-5a2.8 2.8 0 0 1 -2.8-2.8v-9.8a2.8 2.8 0 0 1 2.8-2.8h6.8a2.8 2.8 0 0 1 2.8 2.8v5.3l-4.6 1.1v-4.7h-3.3v6.4h5zm19.3 2.2 4.2 13.2h-4.6v-.1l-3.4-10.8h-.4v11h-4.5v-26.4h4.5v10.9h.3l3.5-10.9h4.6zm11.6-13.1h4.5v26.3h-4.5z" fill="#fff"/></svg>

<svg xmlns="http://www.w3.org/2000/svg" viewBox="0 0 225.8 30"><title>logotype-mobile</title><path fill="#fff" d="M-.027 13.159l3.465-3.465 3.493 3.493-3.465 3.465zM215.072 13.16l3.465-3.465 3.493 3.494-3.465 3.464z"/><path fill="#636466" d="M28.6 13.3h1.3V8.2h2V6.9h-3.3v6.4zM37.7 14.2V6.5A2.8 2.8 0 0 0 36.1 4a2.7 2.7 0 0 1 .3 1.2V13a2.7 2.7 0 0 1-1 2.1 3.2 3.2 0 0 1 1 2.3V26a2.8 2.8 0 0 1-2.8 2.8h-8.2V30H35a2.8 2.8 0 0 0 2.8-2.8v-8.6a3.2 3.2 0 0 0-1-2.3 2.7 2.7 0 0 0 .9-2.1z"/><path fill="#636466" d="M28.6 24.2h1.3v-5.1h2v-1.3h-3.3v6.4zM48.8 24.2h1.3v-16h2V6.9h-3.3v17.3z"/><path d="M56.3 4a2.7 2.7 0 0 1 .3 1.2V26a2.8 2.8 0 0 1-2.8 2.8H47a2.7 2.7 0 0 1-1.2-.3 2.8 2.8 0 0 0 2.5 1.5h6.8a2.8 2.8 0 0 0 2.8-2.8V6.5A2.8 2.8 0 0 0 56.3 4zM69 13.3h1.2V8.2h2V6.9H69v6.4zM76.4 18.8a2.7 2.7 0 0 0 1.6-2.5V6.5A2.8 2.8 0 0 0 76.5 4a2.8 2.8 0 0 1 .3 1.2v9.9a2.7 2.7 0 0 1-1.6 2.5L77 28.8h-3.4l.2 1.2h4.5zM70.7 17.8H69v11h-3.3V30h4.5V19.1h.7l-.2-1.3zM88.5 24.2h1.3v-16h2V6.9h-3.3v17.3z" fill="#636466"/><path d="M96.1 4a2.7 2.7 0 0 1 .3 1.2V26a2.8 2.8 0 0 1-2.8 2.8h-6.8a2.7 2.7 0 0 1-1.2-.3 2.8 2.8 0 0 0 2.5 1.5h6.8a2.8 2.8 0 0 0 2.8-2.8V6.5A2.8 2.8 0 0 0 96.1 4zM108.7 24.2h1.3v-16h2V6.9h-3.3v17.3z" fill="#636466"/><path d="M116.2 4a2.7 2.7 0 0 1 .3 1.2V26a2.8 2.8 0 0 1-2.8 2.8h-8.3V30h9.6a2.8 2.8 0 0 0 2.8-2.8V6.5a2.8 2.8 0 0 0-1.6-2.5zM129.1 3.7v25.1h-3.2V30h4.5V3.7h-1.3zM149.2 3.7v25.1h-3.6l.4 1.2h4.5V3.7h-1.3zM141.4 17.2v11.6h-3.3V30h4.5v-8.3l-1.2-4.5zM161.1 19.1h3.7v-1.3h-5a2.7 2.7 0 0 1-1.2-.3 2.8 2.8 0 0 0 2.5 1.6zM162.8 20.8l-1.2.3v3.1h1.2v-3.4zM169.1 4a2.7 2.7 0 0 1 .3 1.2v5.3l-3.3.8v1.6l4.6-1.1V6.5a2.8 2.8 0 0 0-1.6-2.5z" fill="#636466"/><path d="M169.1 14.9a2.7 2.7 0 0 1 .3 1.2V26a2.8 2.8 0 0 1-2.8 2.8h-6.8a2.7 2.7 0 0 1-1.2-.3 2.8 2.8 0 0 0 2.5 1.6h6.8a2.8 2.8 0 0 0 2.8-2.8v-9.9a2.8 2.8 0 0 0-1.6-2.5zM161.6 6.9v6.4h1.2V8.2h2V6.9h-3.2zM182.1 17.8h-.4v11h-3.2V30h4.5v-9.4l-.9-2.8zM191.4 3.7h-1.7l-3.8 11.9 4.2 13.2h-3.6l.3 1.1v.1h4.6l-4.2-13.2 4.2-13.1zM202 3.7v25.1h-3.2V30h4.5V3.7H202zM221.162 19.12l3.465-3.464 1.273 1.273-3.465 3.465zM5.893 19.09l3.465-3.465 1.272 1.273-3.464 3.465z" fill="#636466"/><path d="M34 10.5a2.7 2.7 0 0 1-1 2.1 3.2 3.2 0 0 1 1 2.3v8.6a2.8 2.8 0 0 1-2.8 2.8h-9.5V0h9.6A2.8 2.8 0 0 1 34 2.8v7.8zm-4.6-6h-3.2v6.4h3.3V4.5zm0 10.9h-3.2v6.4h3.3v-6.4zM51.4 0a2.8 2.8 0 0 1 2.8 2.8v20.8a2.8 2.8 0 0 1-2.8 2.8h-6.8a2.8 2.8 0 0 1-2.8-2.8V2.8A2.8 2.8 0 0 1 44.6 0h6.8zm-1.8 4.5h-3.2v17.3h3.3V4.5zM70.1 26.3l-1.8-11h-1.8v11H62V0h9.6a2.8 2.8 0 0 1 2.7 2.8v9.9a2.7 2.7 0 0 1-1.6 2.5l1.9 11.2h-4.5zm-.3-21.8h-3.3v6.4h3.3V4.5zM91.2 0A2.8 2.8 0 0 1 94 2.8v20.8a2.8 2.8 0 0 1-2.8 2.8h-6.8a2.8 2.8 0 0 1-2.8-2.8V2.8A2.8 2.8 0 0 1 84.4 0h6.8zm-1.8 4.5h-3.3v17.3h3.3V4.5zM111.3 0a2.8 2.8 0 0 1 2.8 2.8v20.8a2.8 2.8 0 0 1-2.8 2.8h-9.6V0h9.6zm-1.8 4.5h-3.3v17.3h3.3V4.5zM122.2 0h4.5v26.3h-4.5V0zM146.8 0v26.3h-4.5L139 14.8v11.5h-4.5V0h4.5l3.3 10.8V0h4.6zM164.2 10.9a2.8 2.8 0 0 1 2.8 2.8v9.9a2.8 2.8 0 0 1-2.8 2.8h-6.8a2.8 2.8 0 0 1-2.8-2.8v-5.5l4.5-1.1v4.7h3.3v-6.3h-5a2.8 2.8 0 0 1-2.8-2.8V2.8a2.8 2.8 0 0 1 2.8-2.8h6.8a2.8 2.8 0 0 1 2.8 2.8v5.3l-4.6 1.1V4.5h-3.3v6.4h5zM183.5 13.1l4.2 13.2h-4.6v-.1l-3.4-10.8h-.4v11h-4.5V0h4.5v10.9h.3L183.1 0h4.6zM195.1 0h4.5v26.3h-4.5V0z" fill="#fff"/></svg>
